icons/qwik/qwik-plain.svg

<svg xmlns="http://www.w3.org/2000/svg" viewBox="0 0 128 128">
  <path style=" stroke:none;fill-rule:nonzero;fill:rgb(9.411765%,71.372549%,96.470588%);fill-opacity:1;" d="M 77.734375 15.320312 L 69.328125 15.558594 L 44.234375 15.625 C 39.496099 15.65625 35.124998 18.175786 32.722656 22.257812 L 17.476562 52.539062 L 17.611328 52.371094 C 14.758144 56.713443 14.518373 62.606491 17.207031 67.105469 L 33.125 93.527344 C 35.558592 97.578121 39.382818 100.18359 44.722656 99.992188 C 56.027333 99.589844 60.996094 99.589844 60.996094 99.589844 L 95.664062 112.54688 L 94.765625 111.6543 L 95.46875 112.33984 C 96.074218 112.92578 97.058594 112.22266 96.65625 111.5 L 87.730469 93.9375 L 104.28516 63.960938 C 106.79297 58.785161 107.6914 54.257808 105.21484 49.707031 L 101.69141 43.222656 L 99.863281 39.894531 L 99.152344 38.597656 L 99.085938 38.671875 L 89.5 22.042969 C 87.082033 17.835942 82.582026 15.265626 77.734375 15.320312 z M 95.664062 112.54688 L 95.671875 112.55859 L 95.671875 112.55469 L 95.664062 112.54688 z M 44.761719 18.59375 L 80.554688 57.953125 L 74.148438 64.445312 L 77.945312 95.025391 L 40.929688 58.417969 L 50.082031 49.597656 L 44.699219 18.757812 L 19.685547 49.791016 L 44.761719 18.59375 z M 78.027344 95.167969 L 78.027344 95.251953 L 77.996094 95.257812 L 77.996094 95.208984 L 78.027344 95.167969 z " />
</svg>

<svg xmlns="http://www.w3.org/2000/svg" viewBox="0 0 128 128"><path d="M77.734 15.32l-8.406.239-25.094.066a13.46 13.46 0 00-11.511 6.633L17.477 52.539l.134-.168c-2.853 4.342-3.093 10.235-.404 14.734l15.918 26.422c2.434 4.051 6.258 6.657 11.598 6.465 11.304-.402 16.273-.402 16.273-.402l34.668 12.957-.898-.893.703.686c.605.586 1.59-.117 1.187-.84L87.73 93.937l16.555-29.976c2.508-5.176 3.406-9.703.93-14.254l-3.524-6.484-1.828-3.328-.71-1.297-.067.074L89.5 22.043a13.397 13.397 0 00-11.766-6.723zm17.93 97.227l.008.012v-.004l-.008-.008zM44.762 18.594l35.793 39.36-6.407 6.491 3.797 30.58L40.93 58.418l9.152-8.82-5.383-30.84L19.686 49.79l25.076-31.197zm33.265 76.574v.084l-.03.006v-.049l.03-.041z" fill="#18b6f6"/></svg>
